!!!COM: Music21
!!!OTL: Foliada do Xosé
!!!OMV: pezas_jotas_jota-de-quindous_foliada-do-xose-partitura.musicxml
**kern
*part1
*staff1
*I"Bagpipes
*I'Bag
*clefG^2
*k[]
*M3/4
=1
!LO:TX:a:t=Prestissimo
*MM200
!LO:TX:a:t=[quarter]=200
2r
4cc
=||
4ee
8eeL
8ffJ
8eeL
8ddJ
=
2cc
4cc
=
4ff
8ffL
8ggJ
8ffL
8eeJ
=
2dd
4dd
=
4gg
8ggL
8aaJ
8ggL
8ffJ
=
4ee
8ffL
8ggJ
8ffL
8eeJ
=
4dd
8eeL
8ffJ
8eeL
8ddJ
!!linebreak:original
=
2cc
4cc
!!linebreak:original
=
4ee
8eeL
8ffJ
8eeL
8ddJ
=
2cc
4cc
=
4ff
8ffL
8ggJ
8ffL
8eeJ
=
2dd
4dd
=
4gg
8ggL
8aaJ
8ggL
8ffJ
=
4ee
8ffL
8ggJ
8ffL
8eeJ
=
4dd
8eeL
8ffJ
8eeL
8ddJ
=
[2.cc
=
2cc]
4cc
!!linebreak:original
=||
4ee
8eeL
8ffJ
8eeL
8ddJ
=
2cc
4cc
=
4ff
8ffL
8ggJ
8ffL
8eeJ
=
2dd
4dd
=
4gg
8ggL
8aaJ
8ggL
8ffJ
=
4ee
8ffL
8ggJ
8ffL
8eeJ
=
4dd
8eeL
8ffJ
8eeL
8ddJ
=
2cc
4cc
!!linebreak:original
=
4ee
8eeL
8ffJ
8eeL
8ddJ
=
2cc
4cc
=
4ff
8ffL
8ggJ
8ffL
8eeJ
=
2dd
4dd
=
4gg
8ggL
8aaJ
8ggL
8ffJ
=
4ee
8ffL
8ggJ
8ffL
8eeJ
!!pagebreak:original
=
4dd
8eeL
8ffJ
8eeL
8ddJ
=||
[2.cc
=
2.cc]
=
4cc
4dd
4ee
=
4ff
4ee
4dd
=
2cc
4eem
=
2.dd
=
4b
4cc
4dd
=
4ee
4dd
4cc
=
2b
4ddM
=
2.cc
!!linebreak:original
=
4cc
4dd
4ee
=
4ff
4ee
4dd
!!linebreak:original
=
2cc
4eem
=
2.dd
=
4b
4cc
4dd
=
4ee
4dd
4cc
=
2b
4ddM
=
2.cc
=
4cc
4dd
4ee
=
4ff
4ee
4dd
=
2cc
4eem
=
2.dd
=
4b
4cc
4dd
=
4ee
4dd
4cc
!!linebreak:original
=
2b
4ddM
!!linebreak:original
=
[2.cc
=
2cc]
4cc
=||
2cc
4gg
=
8cc
8r
2r
==
*-
!!!system-decoration: s1,s2
